X:1
T:Allegro ma non troppo
T:Allegro ma non troppo
T:Nicolas Chédeville
C:Nicolas Chédeville
%%score { 1 | 2 | 3 | 4 }
L:1/8
Q:1/4=90
M:2/4
K:F
V:1 treble nm="Klavier" snm="Klav."
V:2 treble 
V:3 bass 
V:4 bass 
V:1
"^festlich"!mf! d2 A2 | f3 e | d^c de | !breath!G3 B | AG FE | FD FA | de/f/ ed | !breath!^c4 | %8
 d2 A2 | f3 e | d^c de | !breath!G3 B | AG FE | FD FA | de/f/ ed |!<(! !breath!^c4!<)! | %16
!f!"^17" f4- | f(B df) | e4- | e(A ce) |!>(! d4- | d(^G =Bd)!>)! |!mf! ^c2 z B |!>(! B2 z A | %24
 A2 z G | G2 z G!>)! |!p! F d2 F | G d2 G |!<(! A d2 A | B d2 F!<)! |!f! Ed E^c | d2 z2 |"^33" z4 | %33
 z4 | z4 | z4 | z4 | z4 | z4 | z!<(! E A^c!<)! |!f!"^41" d/f/e/f/ dA | .B.d f2 |!>(! e/f/d/e/ cG | %43
 .A.c e2 | d/e/c/d/ =BF!>)! |!mp! .^G.=B .e.B | .^G.=B .e.B | .^G.=B .e.B | c2 z2 | z2 z!mf! .c | %50
 (BA) ^G2 | A2 z2 | z4 | z2 z!f! .e | c=B/A/ E^G | A4 |"^57" z4 | z4 | z4 | z4 | z4 | z4 | z4 | %63
 z =B e2- | eA dd | (d^c) z2 | z4 | z2 z d- | dG cc | (c=B) z2 | z4 | z2 z c- | cF BB | %73
!>(! (BA)!>)! z2 |!mf!"^75" c/A/B/G/ AG | F/A/G/F/ c z |!p! c/A/B/G/ AG | F/A/G/F/ c z | %78
!mf! d/B/c/A/ BA | G/B/A/G/ d z |!p! d/B/c/A/ BA | G/B/A/G/ d z |!mf! e/c/d/=B/ cB | %83
 A/c/=B/A/ e z |!p! e/c/d/=B/ cB |!<(! A/c/=B/A/ ee!<)! |!f! (fe dc) | (_BA GF) | .E B2 (A/G/) | %89
 A!>(!F GE!>)! |!mf!"^91" F2 z2 | z4 | F/A/G/F/ c/e/d/c/ | f2 z/!<(! f/e/f/!<)! |!f! (dc =BA) | %95
 ^G2 z/ e/d/e/ |!>(! (c=B AG) | ^F2 z/ d/c/d/ | (BA GF)!>)! | E2 z/!mp! E/^F/^G/ | %100
!<(! A(^G/A/ .=B)(A/B/ | .c)(A/=B/ .^c)B/c/ | .d.A d/^c/d/e/!<)! |!f! f2 z2 |"^105" z4 | z4 | z4 | %107
 z4 | z4 | z4 | z4 | z2 z/!<(! A/=B/^c/!<)! |!f!"^113" d/e/f/e/ d/c/B/A/ | B2 z2 | %114
 c/d/e/d/ c/B/A/G/ |!>(! A2 z2 | B/c/d/c/ B/A/G/F/ | G2 z .G | E^C!>)! !breath!E!p! A/G/ | %119
 .F z .d z |!<(! .G z .d z | .A z .d z | .B z .d z!<)! |!f! A!>(!d E^c!>)! | %124
"^125" z!mp! (F/E/ F) z |!<(! z (G/F/ G) z | z (A/G/ A) z | z (B/A/ B).d!<)! |!f! E"^rit."d E^c | %129
 !fermata!d4 |] %130
V:2
 z4 |!mf! A2 G2 | F3 ^C | !breath!E3 E | E2 A,2- | A,A, DF | F2 G2 | EE FG | F2 z2 | A2 G2 | %10
 F3 ^C | !breath!E3 E | E2 A,2- | A,A, DF | F2 G2 |!<(! EE FG!<)! |!f! A2 z F | G4 | G2 z E | F4 | %20
!>(! F2 z D | E2 z ^G!>)! |!mf! A2 z G |!>(! G2 z G | G2 z A, | A,2 z E!>)! |!p! DA, D2 | z B, E2 | %28
!<(! z D F2 | z D GB!<)! |!f! A3 G | F2 z2 | z4 |!mp! D2 ^C2 | A,3 B,- | B,B, A,G, | A,2 (G2 | %37
 F3 E | D2) B,2 | A,2 !breath!E2 |!f! AA FF | .G.G G2 |!>(! GG EE | .F.F F2 | FF DD!>)! | %45
!mp! =B/B/A/B/ B z | =B/B/A/B/ B z | =B/B/A/B/ B z | EA,!<(! A,^F/^G/!<)! |!mf! A2 z .A | F2 E2 | %51
 C2 z .E |!<(! D/E/F/G/ A^G | A2!<)! z!f! .E | AF EE | E4 | z4 | z4 | z4 | z!mp! =B, ED | E2 E2- | %61
 E!<(!A, CE!<)! |!mf! A=B/c/ BA | ^G2 z z | z4 | z2 z (A | A)D GG | (GF) z2 | z4 | z2 z G- | %70
 GC FF | (FE) z2 | z4 | z2!<(! F/A/G/F/!<)! |!mf! FF F/F/E/C/ | C z!>(! A/A/G/F/!>)! | %76
!p! FF F/F/E/C/ | C z!<(! A/A/G/^F/!<)! |!mf! GG G/G/^F/D/ | D z!>(! B/B/A/G/!>)! | %80
!p! GG G/G/^F/D/ | D z!<(! B/B/A/^G/!<)! |!mf! AA A/A/^G/E/ | E z!>(! c/c/=B/A/!>)! | %84
!p! AA A/A/^G/E/ | E z!<(! c/c/=B/A/!<)! |!f! (AG FE) | G2 D2 | .C G2 E | F!>(!A, DC!>)! | %90
!mf! A,2 (A,B,) | A,2 z2 | C2 (AB) | A2 z/!<(! F/F/F/!<)! |!f! FF/F/ FF/F/ | E2 z/ E/E/E/ | %96
!>(! EE/E/ EE/E/ | D2 z/ D/D/D/ | DD/D/ DD/D/!>)! | C2 z!mp! D |!<(! E/E/E/E/ E/E/E/E/ | %101
 E/E/E/E/ E/E/E/ z/ | D/^C/D/E/ F/E/F/G/!<)! |!f! A2 z2 | z4 |!mp! D2 ^C2 | A,3 B,- | B,B, A,G, | %108
 A,2 (G2 | F3 E | D2) B,2 | A,2 z E |!f! AA FD | D2 z2 | GG EC |!>(! C2 z2 | FF DB, | B,2 z .E | %118
 ^CA,!>)! !breath!C!p! .E | F/F/E/F/ z/ F/E/F/ |!<(! G/G/F/G/ z/ G/F/G/ | A/A/G/A/ z/ A/G/A/ | %122
 B/B/A/B/ z/ B/A/G/!<)! |!f! F!>(!F GE!>)! | z!mp! (D/^C/ D) z |!<(! z (E/D/ E) z | z (F/E/ F) z | %127
 z (G/F/ G).F!<)! |!f! GF GG | !fermata!F4 |] %130
V:3
 z4 |!mf! D2 ^C2 | A,3 B,- | B,B, A,G, | E,2 E,2 | D,F, A,D | D2 B,2 | A,4 | z4 | D2 ^C2 | %10
 A,3 B,- | B,B, A,G, | E,2 E,2 | D,F, A,D | D2 B,2 |!<(! A,4!<)! | z!f! D DA, | B,4 | z C CG, | %19
 A,4 |!>(! z B, B,F, | ^G,2 E2-!>)! | E!mf!^C/D/ EE- |!>(! E^C/D/ E(E | E)^C/D/ EE- | %25
 E^C/D/ EA,!>)! |!p! A,F, A,2 | z G, B,2 |!<(! z A, D2 | z B, D2!<)! |!f! DF ^CE | D2 z2 | %32
!mf! D2 A,2 | F3 E | D^C DE | !breath!G,3 B, | A,G, F,E, | F,D, F,A, | DE/F/ ED | ^C2 !breath!A,2 | %40
!f! FD D/E/C/D/ | .D.D B,2 |!>(! CC C/D/B,/C/ | .C.C A,2 | =B,B, B,/C/A,/B,/!>)! | %45
!mp! .=B,.B, z/ B,/A,/B,/ | .=B,.B, z/ B,/A,/B,/ | .=B,.B, z/ B,/A,/B,/ | %48
 A,/A,/=B,/C/!<(! D/E/D!<)! |!mf! C2 z .E | (DC) =B,2 | A,2 z .A, |!<(! =B,D D/C/D | %53
 C2!<)! z!f! .=B, | ED C=B, | !breath!C4 |!mf! A,2 E,2 | C3 =B, | A,^G, A,=B, | !breath!E,3 F | %60
 ED C=B, | C!<(!E, A,=B,!<)! |!mf! CA, DC | =B,2 z ^G, | A,D =B,B, | z .E ^CC | z .G, A,A, | %67
 z .A, F,F, | z .C A,A, | z .D =B,B, | z .E, G,G, | z .G, E,E, | z .A, G,G, | z!<(! C A,F,!<)! | %74
!mf! A,A, CG, | A,2 z2 |!p! A,A, CG, | A,2 z2 |!mf! B,B, DA, | B,2 z2 |!p! B,B, DA, | B,2 z2 | %82
!mf! CC E=B, | C2 z2 |!p! CC E=B, | C2 z2 |!f! D2 D2 | (DC B,A,) | .G, C2 C | C!>(!D G,G,!>)! | %90
!mf! F,/A,/G,/F,/ C/E/D/C/ | F2 z2 | A,2 z2 | (CB,!<(! C)A,!<)! |!f! (DE DC) | (=B,A, B,)^G, | %96
!>(! (CD C=B,) | (A,G, A,)^F, | (B,C B,A,)!>)! | G,2 z!mp! =B, |!<(! C z =B, z | A, z A, z | %102
 A, z A, z!<)! |!f! D2 z2 |!mf! D2 A,2 | F3 E | D^C DE | !breath!G,3 B, | A,G, F,E, | F,D, F,A, | %110
 DE/F/ ED | ^C2 z E |!f! DD A,F, | B,/A,/G,/A,/ B,/C/D/B,/ | CC G,E, | %115
!>(! A,/G,/F,/G,/ A,/B,/C/A,/ | B,B, F,D, | G,/F,/E,/F,/ G,/A,/B,/G,/ | A,2!>)! z!p! .^C | %119
 DD F,A, |!<(! DB, G,B, | DD A,D | DD B,D!<)! |!f! D!>(!D B,A, | F,2!>)! z!mp! .D |!<(! G,2 z .D | %126
 A,2 z .D | B,2 z .A,!<)! |!f! B,B, A,A, | !fermata!A,4 |] %130
V:4
 z4 |!mf! D,2 A,,2 | F,E, F,G, | ^C,4- | C,=B,, ^C,A,, | D,2 z =C, | B,,2 G,2 | A,G, F,E, | %8
 D,2 z2 | D,2 A,,2 | F,E, F,G, | ^C,4- | C,=B,, ^C,A,, | D,2 z =C, | B,,2 G,2 |!<(! A,G, F,E,!<)! | %16
!f! D,2 z D, | G,2 G,,2 | C,2 z C, | F,2 F,,2 |!>(! B,,2 z B,, | E,E, ^G,E,!>)! |!mf! A,2 z ^C, | %23
!>(! ^C,2 z C, | ^C,2 z C, | ^C,2 z C,!>)! |!p! D,3 D, | E,3 E, |!<(! F,3 F, | G,3 D,!<)! | %30
!f! A,2 A,,2 | D,!>(!A, F,E,!>)! |!mp! D,2 z2 | D,2 A,,2 | F,E, F,G, | ^C,4- | C,=B,, ^C,A,, | %37
 D,3 =C, | B,,2 G,2 | A,!<(!G, F,E,!<)! |!f! D,2 z2 | (G,A, G,F,) |!>(! C,2 z2 | (F,G, F,E,) | %44
 =B,,2 D,2!>)! |!mp! .E,.E, ^G,E, | .E,.E, .^G,.E, | .E,.E, .^G,.E, | A,A,,!<(! C,=B,,!<)! | %49
!mf! A,,!mf!A, C,A,, | D,2 E,2 | F,2 z .C, |!<(! D,2 E,2 | F,2!<)! z!f! .^G,, | A,,D, E,E, | A,,4 | %56
 z4 |!mf! A,2 E,2 | C,=B,, C,D, | !breath!^G,,2 ^G,2- | G,^F, ^G,E, |!<(! A,3 G,!<)! | %62
!mf! F,2 D,2 | E,2 z E,/E,/ |!<(! ^F,/F,/F,/F,/ ^G,/G,/G,/G,/!<)! |!>(! A,A,!>)! z A,,/A,,/ | %66
 =B,,/B,,/B,,/B,,/ ^C,/C,/C,/C,/ | D,D, z D,/D,/ | E,/E,/E,/E,/ ^F,/F,/F,/F,/ | G,G, z G,,/G,,/ | %70
 A,,/A,,/A,,/A,,/ =B,,/B,,/B,,/B,,/ | C,C, z C,/C,/ |!<(! D,/D,/D,/D,/ E,/E,/E,/E,/!<)! | %73
!>(! F,F,!>)! z2 |!mf! F,F, C,C, | F,,2 z2 |!p! F,F, C,C, | F,,2 z2 |!mf! G,G, D,D, | G,,2 z2 | %80
!p! G,G, D,D, | G,,2 z2 |!mf! A,A, E,E, | A,,2 z2 |!p! A,A, E,E, | A,,2 z2 |!f! D,2 z2 | %87
 G,,2 B,,2 | (C,D, E,)C, | F,!>(!D, B,,C,!>)! |!mf! F,,2 z2 | F,E,/D,/ C,/B,,/A,,/G,,/ | F,,2 z2 | %93
 (F,G,!<(! A,)F,!<)! |!f! =B,,2 z2 | (E,^F, ^G,)E, |!>(! A,2 z2 | (D,E, ^F,)D, | G,2 z2!>)! | %99
 (C,D, C,)!mp!=B,, |!<(! A,, z ^G,, z | A,, z =G, z | F, z D, z!<)! |!f! D,2!>(! A,,2 | %104
 F,2!>)! z2 | D,2 A,,2 | F,E, F,G, | ^C,4- | C,=B,, ^C,A,, | D,3 C, | B,,2 G,2 | %111
 A,!<(!(B, A,G,!<)! |!f! F,2) z2 | G,2 z2 | E,2 z2 |!>(! F,2 z2 | D,2 z2 | E,2 z2 | %118
 A,,2!>)! z!p! .A,, | D,D, D,D, |!<(! E,E, E,E, | F,F, F,F, | G,G, G,G,!<)! |!f! D,!>(!B,, G,,A,, | %124
 D,2!>)! z!mp! .D, |!<(! E,2 z .E, | F,2 z .F, | G,2 z .D,!<)! |!f! G,,2 A,,2 | !fermata!D,4 |] %130

